SVG_Azure_Grouped/Data/Service Bus.svg

<?xml version="1.0" encoding="UTF-8" standalone="no"?>
<!-- Generated by Microsoft Visio, SVG Export Service Bus.svg Page-1 -->

<svg
   xmlns:dc="http://purl.org/dc/elements/1.1/"
   xmlns:cc="http://creativecommons.org/ns#"
   xmlns:rdf="http://www.w3.org/1999/02/22-rdf-syntax-ns#"
   xmlns:svg="http://www.w3.org/2000/svg"
   xmlns="http://www.w3.org/2000/svg"
   xmlns:sodipodi="http://sodipodi.sourceforge.net/DTD/sodipodi-0.dtd"
   xmlns:inkscape="http://www.inkscape.org/namespaces/inkscape"
   width="0.78753227in"
   height="0.70868081in"
   viewBox="0 0 56.702214 51.025002"
   xml:space="preserve"
   class="st8"
   version="1.1"
   id="svg108"
   sodipodi:docname="Service Bus.svg"
   style="font-size:12px;overflow:visible;color-interpolation-filters:sRGB;fill:none;fill-rule:evenodd;stroke-linecap:square;stroke-miterlimit:3"
   inkscape:version="0.92.5 (2060ec1f9f, 2020-04-08)"><metadata
   id="metadata112"><rdf:RDF><cc:Work
       rdf:about=""><dc:format>image/svg+xml</dc:format><dc:type
         rdf:resource="http://purl.org/dc/dcmitype/StillImage" /></cc:Work></rdf:RDF></metadata><sodipodi:namedview
   pagecolor="#ffffff"
   bordercolor="#666666"
   borderopacity="1"
   objecttolerance="10"
   gridtolerance="10"
   guidetolerance="10"
   inkscape:pageopacity="0"
   inkscape:pageshadow="2"
   inkscape:window-width="640"
   inkscape:window-height="480"
   id="namedview110"
   showgrid="false"
   inkscape:zoom="1.4869072"
   inkscape:cx="37.79867"
   inkscape:cy="34.006413"
   inkscape:window-x="0"
   inkscape:window-y="0"
   inkscape:window-maximized="0"
   inkscape:current-layer="svg108" />
	<style
   type="text/css"
   id="style2">
	<![CDATA[
		.st1 {fill:#50e6ff;stroke:none;stroke-linecap:butt;stroke-width:34}
		.st2 {fill:#32bedd;stroke:none;stroke-linecap:butt;stroke-width:34}
		.st3 {fill:#198ab3;stroke:none;stroke-linecap:butt;stroke-width:34}
		.st4 {fill:url(#grad0-12);stroke:none;stroke-linecap:butt;stroke-width:34}
		.st5 {fill:#999999;stroke:none;stroke-linecap:butt;stroke-width:34}
		.st6 {fill:#999999;fill-opacity:0.5;stroke:none;stroke-linecap:butt;stroke-width:34}
		.st7 {fill:#949494;stroke:none;stroke-linecap:butt;stroke-width:34}
		.st8 {fill:none;fill-rule:evenodd;font-size:12px;overflow:visible;stroke-linecap:square;stroke-miterlimit:3}
	]]>
	</style>

	<defs
   id="Patterns_And_Gradients">
		<linearGradient
   id="grad0-12"
   x1="0"
   y1="189.06738"
   x2="16.904807"
   y2="189.06738"
   gradientTransform="scale(1.7302771,0.57794212)"
   gradientUnits="userSpaceOnUse">
			<stop
   offset="0"
   stop-color="#005ba1"
   stop-opacity="1"
   id="stop4" />
			<stop
   offset="0.26"
   stop-color="#00589d"
   stop-opacity="1"
   id="stop6" />
			<stop
   offset="0.53"
   stop-color="#004f90"
   stop-opacity="1"
   id="stop8" />
			<stop
   offset="0.8"
   stop-color="#003f7c"
   stop-opacity="1"
   id="stop10" />
			<stop
   offset="1"
   stop-color="#003067"
   stop-opacity="1"
   id="stop12" />
		</linearGradient>
	</defs>
	<g
   id="g106"
   transform="translate(-34.000106,-33.9993)">
		<title
   id="title16">Page-1</title>
		<g
   id="group19227-1"
   transform="translate(34.0052,-34.0157)">
			<title
   id="title18">Service Bus.19227</title>
			<g
   id="group19228-2">
				<title
   id="title20">Icon-integration-214</title>
				<g
   id="shape19229-3"
   transform="translate(13.7063,-11.3573)">
					<title
   id="title22">Sheet.19229</title>
					<path
   d="M 29.28,99.49 H 29.25 V 99.43 H 29.18 L 14.64,89.42 0.07,99.43 H 0 v 19.61 H 29.25 V 99.49 Z"
   class="st1"
   id="path24"
   inkscape:connector-curvature="0"
   style="fill:#50e6ff;stroke:none;stroke-width:34;stroke-linecap:butt" />
				</g>
				<g
   id="shape19230-5"
   transform="translate(13.7063,-11.3573)">
					<title
   id="title27">Sheet.19230</title>
					<path
   d="m 0,99.49 v 19.55 l 14.64,-9.77 z"
   class="st2"
   id="path29"
   inkscape:connector-curvature="0"
   style="fill:#32bedd;stroke:none;stroke-width:34;stroke-linecap:butt" />
				</g>
				<g
   id="shape19231-7"
   transform="translate(28.3465,-11.3573)">
					<title
   id="title32">Sheet.19231</title>
					<path
   d="M 14.61,99.49 0,109.27 l 14.61,9.77 z"
   class="st3"
   id="path34"
   inkscape:connector-curvature="0"
   style="fill:#198ab3;stroke:none;stroke-width:34;stroke-linecap:butt" />
				</g>
				<g
   id="shape19232-9"
   transform="translate(13.7063,-11.3573)">
					<title
   id="title37">Sheet.19232</title>
					<path
   d="M 14.61,109.27 0,119.01 v 0.03 h 29.25 v -0.03 z"
   class="st4"
   id="path39"
   inkscape:connector-curvature="0"
   style="fill:url(#grad0-12);stroke:none;stroke-width:34;stroke-linecap:butt" />
				</g>
				<g
   id="group19233-13"
   transform="translate(0,-38.015)">
					<title
   id="title42">Sheet.19233</title>
					<g
   id="shape19234-14">
						<title
   id="title44">Sheet.19234</title>
						<path
   d="m 1.9,106.03 h 4.3 v 12.03 a 0.967114,0.977335 0 0 1 -0.967114,0.97733 L 0.97,119.04 A 0.967114,0.977335 0 0 1 0.002886,118.06267 L 0,107.95 a 1.90088,1.92097 0 0 1 1.9,-1.92 z"
   class="st5"
   id="path46"
   inkscape:connector-curvature="0"
   style="fill:#999999;stroke:none;stroke-width:34;stroke-linecap:butt" />
					</g>
					<g
   id="shape19235-16">
						<title
   id="title49">Sheet.19235</title>
						<path
   d="m 1.9,106.03 h 4.3 v 12.03 a 0.967114,0.977335 0 0 1 -0.967114,0.97733 L 0.97,119.04 A 0.967114,0.977335 0 0 1 0.002886,118.06267 L 0,107.95 a 1.90088,1.92097 0 0 1 1.9,-1.92 z"
   class="st6"
   id="path51"
   inkscape:connector-curvature="0"
   style="fill:#999999;fill-opacity:0.5;stroke:none;stroke-width:34;stroke-linecap:butt" />
					</g>
				</g>
				<g
   id="group19236-18"
   transform="translate(50.49,-38.015)">
					<title
   id="title55">Sheet.19236</title>
					<g
   id="shape19237-19">
						<title
   id="title57">Sheet.19237</title>
						<path
   d="m 0,106.03 h 4.3 a 1.90088,1.92097 0 0 1 1.9,1.92 v 10.11 a 0.967114,0.977335 0 0 1 -0.967114,0.97733 L 0.93,119.04 a 0.967114,0.977335 0 0 1 -0.933766,-0.97733 z"
   class="st5"
   id="path59"
   inkscape:connector-curvature="0"
   style="fill:#999999;stroke:none;stroke-width:34;stroke-linecap:butt" />
					</g>
					<g
   id="shape19238-21">
						<title
   id="title62">Sheet.19238</title>
						<path
   d="m 0,106.03 h 4.3 a 1.90088,1.92097 0 0 1 1.9,1.92 v 10.11 a 0.967114,0.977335 0 0 1 -0.967114,0.97733 L 0.93,119.04 a 0.967114,0.977335 0 0 1 -0.933766,-0.97733 z"
   class="st6"
   id="path64"
   inkscape:connector-curvature="0"
   style="fill:#999999;fill-opacity:0.5;stroke:none;stroke-width:34;stroke-linecap:butt" />
					</g>
				</g>
				<g
   id="shape19239-23"
   transform="translate(0,-44.89)">
					<title
   id="title68">Sheet.19239</title>
					<path
   d="m 56.69,114.83 v 4.21 H 0 v -4.21 a 1.90088,1.92097 0 0 1 1.9,-1.92 h 52.93 a 1.90088,1.92097 0 0 1 1.86,1.92 z"
   class="st7"
   id="path70"
   inkscape:connector-curvature="0"
   style="fill:#949494;stroke:none;stroke-width:34;stroke-linecap:butt" />
				</g>
				<g
   id="group19240-25">
					<title
   id="title73">Sheet.19240</title>
					<g
   id="shape19241-26">
						<title
   id="title75">Sheet.19241</title>
						<path
   d="m 0.97,105.93 h 4.3 a 0.967114,0.977335 0 0 1 0.967114,0.97734 L 6.24,119.04 H 1.9 A 1.90088,1.92097 0 0 1 0,117.12 v -10.11 a 0.967114,0.977335 0 0 1 0.967114,-1.07844 z"
   class="st5"
   id="path77"
   inkscape:connector-curvature="0"
   style="fill:#999999;stroke:none;stroke-width:34;stroke-linecap:butt" />
					</g>
					<g
   id="shape19242-28">
						<title
   id="title80">Sheet.19242</title>
						<path
   d="m 0.97,105.93 h 4.3 a 0.967114,0.977335 0 0 1 0.967114,0.97734 L 6.24,119.04 H 1.9 A 1.90088,1.92097 0 0 1 0,117.12 v -10.11 a 0.967114,0.977335 0 0 1 0.967114,-1.07844 z"
   class="st6"
   id="path82"
   inkscape:connector-curvature="0"
   style="fill:#999999;fill-opacity:0.5;stroke:none;stroke-width:34;stroke-linecap:butt" />
					</g>
				</g>
				<g
   id="group19243-30"
   transform="translate(50.49,-0.101104)">
					<title
   id="title86">Sheet.19243</title>
					<g
   id="shape19244-31">
						<title
   id="title88">Sheet.19244</title>
						<path
   d="m 0.93,106.03 h 4.31 a 0.967114,0.977335 0 0 1 0.967114,0.97733 L 6.2,117.12 a 1.90088,1.92097 0 0 1 -1.9,1.92 H 0 v -11.93 a 0.967114,0.977335 0 0 1 0.933766,-1.07844 z"
   class="st5"
   id="path90"
   inkscape:connector-curvature="0"
   style="fill:#999999;stroke:none;stroke-width:34;stroke-linecap:butt" />
					</g>
					<g
   id="shape19245-33">
						<title
   id="title93">Sheet.19245</title>
						<path
   d="m 0.93,106.03 h 4.31 a 0.967114,0.977335 0 0 1 0.967114,0.97733 L 6.2,117.12 a 1.90088,1.92097 0 0 1 -1.9,1.92 H 0 v -11.93 a 0.967114,0.977335 0 0 1 0.933766,-1.07844 z"
   class="st6"
   id="path95"
   inkscape:connector-curvature="0"
   style="fill:#999999;fill-opacity:0.5;stroke:none;stroke-width:34;stroke-linecap:butt" />
					</g>
				</g>
				<g
   id="shape19246-35">
					<title
   id="title99">Sheet.19246</title>
					<path
   d="m 0,117.12 v -4.21 h 56.69 v 4.21 a 1.90088,1.92097 0 0 1 -1.9,1.92 H 1.9 A 1.90088,1.92097 0 0 1 0,117.12 Z"
   class="st7"
   id="path101"
   inkscape:connector-curvature="0"
   style="fill:#949494;stroke:none;stroke-width:34;stroke-linecap:butt" />
				</g>
			</g>
		</g>
	</g>
</svg>

<?xml version="1.0" encoding="UTF-8" standalone="no"?>
<!DOCTYPE svg PUBLIC "-//W3C//DTD SVG 1.1//EN" "http://www.w3.org/Graphics/SVG/1.1/DTD/svg11.dtd">
<!-- Generated by Microsoft Visio, SVG Export Service Bus.svg Page-1 -->
<svg xmlns="http://www.w3.org/2000/svg" xmlns:xlink="http://www.w3.org/1999/xlink" xmlns:ev="http://www.w3.org/2001/xml-events"
		width="1.73192in" height="1.65332in" viewBox="0 0 124.698 119.039" xml:space="preserve" color-interpolation-filters="sRGB"
		class="st8">
	<style type="text/css">
	<![CDATA[
		.st1 {fill:#50e6ff;stroke:none;stroke-linecap:butt;stroke-width:34}
		.st2 {fill:#32bedd;stroke:none;stroke-linecap:butt;stroke-width:34}
		.st3 {fill:#198ab3;stroke:none;stroke-linecap:butt;stroke-width:34}
		.st4 {fill:url(#grad0-12);stroke:none;stroke-linecap:butt;stroke-width:34}
		.st5 {fill:#999999;stroke:none;stroke-linecap:butt;stroke-width:34}
		.st6 {fill:#999999;fill-opacity:0.5;stroke:none;stroke-linecap:butt;stroke-width:34}
		.st7 {fill:#949494;stroke:none;stroke-linecap:butt;stroke-width:34}
		.st8 {fill:none;fill-rule:evenodd;font-size:12px;overflow:visible;stroke-linecap:square;stroke-miterlimit:3}
	]]>
	</style>

	<defs id="Patterns_And_Gradients">
		<linearGradient id="grad0-12" x1="0" y1="0" x2="1" y2="0" gradientTransform="rotate(90 0.5 0.5)">
			<stop offset="0" stop-color="#005ba1" stop-opacity="1"/>
			<stop offset="0.26" stop-color="#00589d" stop-opacity="1"/>
			<stop offset="0.53" stop-color="#004f90" stop-opacity="1"/>
			<stop offset="0.8" stop-color="#003f7c" stop-opacity="1"/>
			<stop offset="1" stop-color="#003067" stop-opacity="1"/>
		</linearGradient>
	</defs>
	<g>
		<title>Page-1</title>
		<g id="group18791-1" transform="translate(34.0052,-34.0157)">
			<title>Service Bus.18791</title>
			<g id="group18792-2">
				<title>Icon-integration-214</title>
				<g id="shape18793-3" transform="translate(13.7063,-11.3573)">
					<title>Sheet.18793</title>
					<path d="M29.28 99.49 L29.25 99.49 L29.25 99.43 L29.18 99.43 L14.64 89.42 L0.07 99.43 L0 99.43 L0 119.04 L29.25
								 119.04 L29.25 99.49 L29.28 99.49 Z" class="st1"/>
				</g>
				<g id="shape18794-5" transform="translate(13.7063,-11.3573)">
					<title>Sheet.18794</title>
					<path d="M0 99.49 L0 119.04 L14.64 109.27 L0 99.49 Z" class="st2"/>
				</g>
				<g id="shape18795-7" transform="translate(28.3465,-11.3573)">
					<title>Sheet.18795</title>
					<path d="M14.61 99.49 L0 109.27 L14.61 119.04 L14.61 99.49 Z" class="st3"/>
				</g>
				<g id="shape18796-9" transform="translate(13.7063,-11.3573)">
					<title>Sheet.18796</title>
					<path d="M14.61 109.27 L0 119.01 L0 119.04 L29.25 119.04 L29.25 119.01 L14.61 109.27 Z" class="st4"/>
				</g>
				<g id="group18797-13" transform="translate(5.64548E-14,-38.015)">
					<title>Sheet.18797</title>
					<g id="shape18798-14">
						<title>Sheet.18798</title>
						<path d="M1.9 106.03 L6.2 106.03 L6.2 118.06 a0.967114 0.977335 0 0 1 -0.967114 0.977335 L0.97 119.04 a0.967114
									 0.977335 0 0 1 -0.967114 -0.977335 L0 107.95 A1.90088 1.92097 0 0 1 1.9 106.03 Z" class="st5"/>
					</g>
					<g id="shape18799-16">
						<title>Sheet.18799</title>
						<path d="M1.9 106.03 L6.2 106.03 L6.2 118.06 a0.967114 0.977335 0 0 1 -0.967114 0.977335 L0.97 119.04 a0.967114
									 0.977335 0 0 1 -0.967114 -0.977335 L0 107.95 A1.90088 1.92097 0 0 1 1.9 106.03 Z" class="st6"/>
					</g>
				</g>
				<g id="group18800-18" transform="translate(50.49,-38.015)">
					<title>Sheet.18800</title>
					<g id="shape18801-19">
						<title>Sheet.18801</title>
						<path d="M0 106.03 L4.3 106.03 A1.90088 1.92097 0 0 1 6.2 107.95 L6.2 118.06 a0.967114 0.977335 0 0 1 -0.967114
									 0.977335 L0.93 119.04 a0.967114 0.977335 0 0 1 -0.933766 -0.977335 L0 106.03 Z" class="st5"/>
					</g>
					<g id="shape18802-21">
						<title>Sheet.18802</title>
						<path d="M0 106.03 L4.3 106.03 A1.90088 1.92097 0 0 1 6.2 107.95 L6.2 118.06 a0.967114 0.977335 0 0 1 -0.967114
									 0.977335 L0.93 119.04 a0.967114 0.977335 0 0 1 -0.933766 -0.977335 L0 106.03 Z" class="st6"/>
					</g>
				</g>
				<g id="shape18803-23" transform="translate(0,-44.89)">
					<title>Sheet.18803</title>
					<path d="M56.69 114.83 L56.69 119.04 L0 119.04 L0 114.83 A1.90088 1.92097 0 0 1 1.9 112.91 L54.83 112.91 A1.90088
								 1.92097 0 0 1 56.69 114.83 Z" class="st7"/>
				</g>
				<g id="group18804-25">
					<title>Sheet.18804</title>
					<g id="shape18805-26">
						<title>Sheet.18805</title>
						<path d="M0.97 105.93 L5.27 105.93 a0.967114 0.977335 0 0 1 0.967114 0.977335 L6.24 119.04 L1.9 119.04 A1.90088
									 1.92097 0 0 1 0 117.12 L0 107.01 a0.967114 0.977335 0 0 1 0.967114 -1.07844 Z" class="st5"/>
					</g>
					<g id="shape18806-28">
						<title>Sheet.18806</title>
						<path d="M0.97 105.93 L5.27 105.93 a0.967114 0.977335 0 0 1 0.967114 0.977335 L6.24 119.04 L1.9 119.04 A1.90088
									 1.92097 0 0 1 0 117.12 L0 107.01 a0.967114 0.977335 0 0 1 0.967114 -1.07844 Z" class="st6"/>
					</g>
				</g>
				<g id="group18807-30" transform="translate(50.49,-0.101104)">
					<title>Sheet.18807</title>
					<g id="shape18808-31">
						<title>Sheet.18808</title>
						<path d="M0.93 106.03 L5.24 106.03 a0.967114 0.977335 0 0 1 0.967114 0.977335 L6.2 117.12 A1.90088 1.92097
									 0 0 1 4.3 119.04 L0 119.04 L0 107.11 a0.967114 0.977335 0 0 1 0.933766 -1.07844 Z" class="st5"/>
					</g>
					<g id="shape18809-33">
						<title>Sheet.18809</title>
						<path d="M0.93 106.03 L5.24 106.03 a0.967114 0.977335 0 0 1 0.967114 0.977335 L6.2 117.12 A1.90088 1.92097
									 0 0 1 4.3 119.04 L0 119.04 L0 107.11 a0.967114 0.977335 0 0 1 0.933766 -1.07844 Z" class="st6"/>
					</g>
				</g>
				<g id="shape18810-35">
					<title>Sheet.18810</title>
					<path d="M0 117.12 L0 112.91 L56.69 112.91 L56.69 117.12 A1.90088 1.92097 0 0 1 54.79 119.04 L1.9 119.04 A1.90088
								 1.92097 0 0 1 0 117.12 Z" class="st7"/>
				</g>
			</g>
		</g>
	</g>
</svg>
